editor/icons/icon_remove_internal.svg

<svg height="16" viewBox="0 0 16 16" width="16" xmlns="http://www.w3.org/2000/svg"><g fill="#e0e0e0"><circle cx="10.508475" cy="12.677966" r="2.372881"/><path d="m3.7578 2.3438-1.4141 1.4141 4.2422 4.2422-4.2422 4.2422 1.4141 1.4141 4.2422-4.2422 4.2422 4.2422 1.4141-1.4141-4.2422-4.2422 4.2422-4.2422-1.4141-1.4141-4.2422 4.2422z" transform="matrix(.63442593 0 0 .63442593 .38222 .924574)"/></g></svg>

<?xml version="1.0" encoding="UTF-8" standalone="no"?>
<svg
   xmlns:dc="http://purl.org/dc/elements/1.1/"
   xmlns:cc="http://creativecommons.org/ns#"
   xmlns:rdf="http://www.w3.org/1999/02/22-rdf-syntax-ns#"
   xmlns:svg="http://www.w3.org/2000/svg"
   xmlns="http://www.w3.org/2000/svg"
   xmlns:sodipodi="http://sodipodi.sourceforge.net/DTD/sodipodi-0.dtd"
   xmlns:inkscape="http://www.inkscape.org/namespaces/inkscape"
   width="16"
   height="16"
   version="1.1"
   viewBox="0 0 16 16"
   id="svg6"
   sodipodi:docname="icon_remove_internal.svg"
   inkscape:version="0.92.3 (2405546, 2018-03-11)">
  <metadata
     id="metadata12">
    <rdf:RDF>
      <cc:Work
         rdf:about="">
        <dc:format>image/svg+xml</dc:format>
        <dc:type
           rdf:resource="http://purl.org/dc/dcmitype/StillImage" />
        <dc:title></dc:title>
      </cc:Work>
    </rdf:RDF>
  </metadata>
  <defs
     id="defs10" />
  <sodipodi:namedview
     pagecolor="#ffffff"
     bordercolor="#666666"
     borderopacity="1"
     objecttolerance="10"
     gridtolerance="10"
     guidetolerance="10"
     inkscape:pageopacity="0"
     inkscape:pageshadow="2"
     inkscape:window-width="1111"
     inkscape:window-height="646"
     id="namedview8"
     showgrid="false"
     inkscape:zoom="14.75"
     inkscape:cx="9.4237288"
     inkscape:cy="12.255032"
     inkscape:window-x="649"
     inkscape:window-y="95"
     inkscape:window-maximized="0"
     inkscape:current-layer="svg6" />
  <circle
     style="fill:#e0e0e0;fill-opacity:1"
     id="path822"
     cx="10.508475"
     cy="12.677966"
     r="2.3728814" />
  <g
     transform="matrix(0.63442593,0,0,0.63442593,0.38221965,-656.59446)"
     id="g896">
    <path
       style="fill:#e0e0e0"
       inkscape:connector-curvature="0"
       transform="translate(0,1036.4)"
       d="M 3.7578,2.3438 2.3437,3.7579 6.5859,8.0001 2.3437,12.2423 3.7578,13.6564 8,9.4142 12.2422,13.6564 13.6563,12.2423 9.4141,8.0001 13.6563,3.7579 12.2422,2.3438 8,6.586 Z"
       id="path894" />
  </g>
</svg>
